X:101
%%etbk:tnset id:36,pos:1,rep:3x,ant:
%%etbk:wsite http://www.thesession.org/tunes/display/1748
%%etbk:pldat 2016-04-23T16:59,2016-04-20T16:39,2015-08-24T19:05,2015-02-06T18:05,2015-01-31T17:04,2014-05-20T17:20,2014-04-01T17:48,2014-03-22T16:12,2014-02-18T17:05,2014-02-14T17:19,2014-02-09T13:04,2013-12-09T18:56,2013-11-06T17:36,2013-10-23T18:51,2013-10-21T17:54,2013-10-20T14:05,2013-09-12T18:12,2013-08-29T16:00,2013-08-26T18:13,2013-05-20T15:24,2013-05-05T14:08,2013-05-01T16:11
T: Humours Of Scarriff, The
Z: Piano Box Version by Martin Fleischmann
H: Created 2013-02-19 /  Last Modified 2013-02-19
M: 4/4
L: 1/8
R: reel
K: Ddor
"dm"!1!F!2!A!3!d!4!e !5!f!1!A!4!e!3!d | "am"!2!c!1!A!1!G!2!c !1!Ac!1!G2 | "dm"!1!A!3!dde !5!f2ed | "am"!2!ccAc "dm"c!3!dd2 |
"dm"!3!d!1!Ade !5!fAed | "am"!2!c!1!A!1!Gc !1!Ac!1!Gc | "dm"!1!A!3!dde !5!f2ed | "am"!2!ccAc "dm"c!3!dd2||
"C"!2!e!1!c!4!gc !5!acgc | !2!e!1!cgc e!5!aa2 | !2!ecgc !5!ac!4!g!1!c | !3!edcd "dm"!3!e!1!d !3!(3d!2!d!1!d |
"C"!2!ec!4!gc !5!acgc | !2!ecgc e!5!aa2 | !5!a3g !2!eee!1!d | !2!ccAc "dm"c!3!dd2||
|"bar 4 is normally played like this" !4!cA!1!G!2!E E!1!DD2 |


